X:0418
T:Jackson's Night Cap.
C:Irish
M:6/8
L:1/8
Q:3/8=120
I: :: ::
Z:Jack Campin * www.campin.me.uk * 2009
K:A Mixolydian
A|d.B.B  cAA         |TBAG       TFED  | dBB    cAA  | dAF    EFA  |
 (de)f  (Bc)d        | ABG        FEF  | D>ED   DFA  | AFE   (EF)A::
  d3     f3          | a2b        afd  | d2f    afa  | bge    ecA  |
  d2f    a(f/g/a/).f/|(bg/a/b/)g/ a2g  | fed    dfe  | dAF    EFA ::
 (df).e (df).e       |(dA).G     (FE).D|(df).e (df).e|(dA).F (EF).A|
 (de).f (Bc).d       | ABG        FEF  | DED    DFA  | AFE    EFA :|

